svgs/light/trash-can-undo.svg

<svg xmlns="http://www.w3.org/2000/svg" viewBox="0 0 448 512"><!--! Font Awesome Pro 6.4.0 by @fontawesome - https://fontawesome.com License - https://fontawesome.com/license (Commercial License) Copyright 2023 Fonticons, Inc. --><path d="M164.2 39.5L148.9 64H299.1L283.8 39.5c-2.9-4.7-8.1-7.5-13.6-7.5H177.7c-5.5 0-10.6 2.8-13.6 7.5zM311 22.6L336.9 64H384h32 16c8.8 0 16 7.2 16 16s-7.2 16-16 16H416V432c0 44.2-35.8 80-80 80H112c-44.2 0-80-35.8-80-80V96H16C7.2 96 0 88.8 0 80s7.2-16 16-16H32 64h47.1L137 22.6C145.8 8.5 161.2 0 177.7 0h92.5c16.6 0 31.9 8.5 40.7 22.6zM64 96V432c0 26.5 21.5 48 48 48H336c26.5 0 48-21.5 48-48V96H64zm155.9 93.3c5.9 6.6 5.4 16.7-1.2 22.6l-49 44.1H240c44.2 0 80 35.8 80 80v40c0 8.8-7.2 16-16 16s-16-7.2-16-16V336c0-26.5-21.5-48-48-48H169.7l49 44.1c6.6 5.9 7.1 16 1.2 22.6s-16 7.1-22.6 1.2l-80-72c-3.4-3-5.3-7.4-5.3-11.9s1.9-8.9 5.3-11.9l80-72c6.6-5.9 16.7-5.4 22.6 1.2z"/></svg>

<svg xmlns="http://www.w3.org/2000/svg" viewBox="0 0 448 512"><!--! Font Awesome Pro 6.3.0 by @fontawesome - https://fontawesome.com License - https://fontawesome.com/license (Commercial License) Copyright 2023 Fonticons, Inc. --><path d="M219.9 189.3C225.8 195.9 225.3 205.1 218.7 211.9L169.7 256H240C284.2 256 320 291.8 320 336V376C320 384.8 312.8 392 304 392C295.2 392 288 384.8 288 376V336C288 309.5 266.5 288 240 288H169.7L218.7 332.1C225.3 338 225.8 348.1 219.9 354.7C213.1 361.3 203.9 361.8 197.3 355.9L117.3 283.9C113.9 280.9 112 276.5 112 271.1C112 267.5 113.9 263.1 117.3 260.1L197.3 188.1C203.9 182.2 213.1 182.7 219.9 189.3V189.3zM310.1 22.56L336.9 64H432C440.8 64 448 71.16 448 80C448 88.84 440.8 96 432 96H416V432C416 476.2 380.2 512 336 512H112C67.82 512 32 476.2 32 432V96H16C7.164 96 0 88.84 0 80C0 71.16 7.164 64 16 64H111.1L137 22.56C145.8 8.526 161.2 0 177.7 0H270.3C286.8 0 302.2 8.526 310.1 22.56V22.56zM148.9 64H299.1L283.8 39.52C280.9 34.84 275.8 32 270.3 32H177.7C172.2 32 167.1 34.84 164.2 39.52L148.9 64zM64 432C64 458.5 85.49 480 112 480H336C362.5 480 384 458.5 384 432V96H64V432z"/></svg>
